src/4-icons/transport.svg

<svg width="260" height="260" viewBox="0 0 260 260" fill="none" xmlns="http://www.w3.org/2000/svg">
<path d="M65 188C65 184.134 68.134 181 72 181H88C91.866 181 95 184.134 95 188C95 191.866 91.866 195 88 195H72C68.134 195 65 191.866 65 188Z" fill="black"/>
<path d="M172 181C168.134 181 165 184.134 165 188C165 191.866 168.134 195 172 195H188C191.866 195 195 191.866 195 188C195 184.134 191.866 181 188 181H172Z" fill="black"/>
<path fill-rule="evenodd" clip-rule="evenodd" d="M45 0C36.7157 0 30 6.71573 30 15V35H17C8.71573 35 2 41.7157 2 50V74C2 82.2843 8.71573 89 17 89H30V211C30 219.284 36.7157 226 45 226H50V238C50 250.15 59.8497 260 72 260C84.1503 260 94 250.15 94 238V226H166V238C166 250.15 175.85 260 188 260C200.15 260 210 250.15 210 238V226H215C223.284 226 230 219.284 230 211V89H243C251.284 89 258 82.2843 258 74V50C258 41.7157 251.284 35 243 35H230V15C230 6.71573 223.284 0 215 0H45ZM30 75V49H19C17.3431 49 16 50.3431 16 52V72C16 73.6569 17.3431 75 19 75H30ZM241 75H230V49H241C242.657 49 244 50.3431 244 52V72C244 73.6569 242.657 75 241 75ZM180 226V238C180 242.418 183.582 246 188 246C192.418 246 196 242.418 196 238V226H180ZM64 238V226H80V238C80 242.418 76.4183 246 72 246C67.5817 246 64 242.418 64 238ZM216 35V19C216 16.2386 213.761 14 211 14H49C46.2386 14 44 16.2386 44 19V35H216ZM44 49V157H216V49H44ZM44 207V171H216V207C216 209.761 213.761 212 211 212H49C46.2386 212 44 209.761 44 207Z" fill="black"/>
</svg>

<svg width="260" height="260" viewBox="0 0 260 260" fill="none" xmlns="http://www.w3.org/2000/svg"><path d="M65 188a7 7 0 0 1 7-7h16a7 7 0 1 1 0 14H72a7 7 0 0 1-7-7Zm107-7a7 7 0 1 0 0 14h16a7 7 0 1 0 0-14h-16Z" fill="#000"/><path fill-rule="evenodd" clip-rule="evenodd" d="M45 0c-8.284 0-15 6.716-15 15v20H17C8.716 35 2 41.716 2 50v24c0 8.284 6.716 15 15 15h13v122c0 8.284 6.716 15 15 15h5v12c0 12.15 9.85 22 22 22s22-9.85 22-22v-12h72v12c0 12.15 9.85 22 22 22s22-9.85 22-22v-12h5c8.284 0 15-6.716 15-15V89h13c8.284 0 15-6.716 15-15V50c0-8.284-6.716-15-15-15h-13V15c0-8.284-6.716-15-15-15H45ZM30 75V49H19a3 3 0 0 0-3 3v20a3 3 0 0 0 3 3h11Zm211 0h-11V49h11a3 3 0 0 1 3 3v20a3 3 0 0 1-3 3Zm-61 151v12a8 8 0 0 0 16 0v-12h-16ZM64 238v-12h16v12a8 8 0 0 1-16 0ZM216 35V19a5 5 0 0 0-5-5H49a5 5 0 0 0-5 5v16h172ZM44 49v108h172V49H44Zm0 158v-36h172v36a5 5 0 0 1-5 5H49a5 5 0 0 1-5-5Z" fill="#000"/></svg>
